resources/icons/scopy-light/icons/ic_note_checked.svg

<?xml version="1.0" encoding="UTF-8"?>
<svg width="40px" height="36px" version="1.1" viewBox="0 0 40 36" xmlns="http://www.w3.org/2000/svg">
 <g fill="#000" fill-rule="evenodd">
  <g transform="translate(-509 -160)">
   <path d="m509 160h20v4h-20v-4zm0 8h40v4h-40v-4zm0 8h40v4h-40v-4zm0 8h40v4h-40v-4zm0 8h40v4h-40v-4z"/>
  </g>
 </g>
</svg>

<?xml version="1.0" encoding="UTF-8"?>
<svg width="40px" height="36px" viewBox="0 0 40 36" version="1.1" xmlns="http://www.w3.org/2000/svg" xmlns:xlink="http://www.w3.org/1999/xlink">
    <!-- Generator: sketchtool 49.3 (51167) - http://www.bohemiancoding.com/sketch -->
    <title>A8FEBD7D-95E8-4125-8AAF-B10795811545</title>
    <desc>Created with sketchtool.</desc>
    <defs></defs>
    <g id="main" stroke="none" stroke-width="1" fill="none" fill-rule="evenodd" >
        <g id="notes" transform="translate(-509.000000, -160.000000)" fill="#FFFFFF">
            <path d="M509,160 L529,160 L529,164 L509,164 L509,160 Z M509,168 L549,168 L549,172 L509,172 L509,168 Z M509,176 L549,176 L549,180 L509,180 L509,176 Z M509,184 L549,184 L549,188 L509,188 L509,184 Z M509,192 L549,192 L549,196 L509,196 L509,192 Z" id="ic-note"></path>
        </g>
    </g>
</svg>
